frontend/public/icons/bold-square.svg

<svg width="24" height="24" viewBox="0 0 24 24" fill="none" xmlns="http://www.w3.org/2000/svg">
<path d="M3 20.4V3.6C3 3.26863 3.26863 3 3.6 3H20.4C20.7314 3 21 3.26863 21 3.6V20.4C21 20.7314 20.7314 21 20.4 21H3.6C3.26863 21 3 20.7314 3 20.4Z" stroke="black" stroke-width="1.5"/>
<path d="M12 12H9M12 12C12 12 14.5 12 14.5 9.5C14.5 7.00001 12 7 12 7H9.6C9.26863 7 9 7.26863 9 7.6V12M12 12C12 12 15 12 15 14.75C15 17.5 12 17.5 12 17.5H9.6C9.26863 17.5 9 17.2314 9 16.9V12" stroke="black" stroke-width="1.5"/>
</svg>

<svg xmlns="http://www.w3.org/2000/svg" width="24" height="24" fill="none" viewBox="0 0 24 24">
  <path stroke="#131927" stroke-width="1.5" d="M3 20.4V3.6a.6.6 0 0 1 .6-.6h16.8a.6.6 0 0 1 .6.6v16.8a.6.6 0 0 1-.6.6H3.6a.6.6 0 0 1-.6-.6Z"/>
  <path stroke="#131927" stroke-width="1.5" d="M12 12H9m3 0s2.5 0 2.5-2.5S12 7 12 7H9.6a.6.6 0 0 0-.6.6V12m3 0s3 0 3 2.75-3 2.75-3 2.75H9.6a.6.6 0 0 1-.6-.6V12"/>
</svg>
